src/assets/icons/files-folders-data,fancy,document.svg

<svg width="48" height="48" viewBox="0 0 48 48" fill="none" xmlns="http://www.w3.org/2000/svg">
<path d="M8 13.5C8 8.55025 8 6.07538 9.5621 4.53769C11.1242 3 13.6384 3 18.6667 3H29.3333C34.3616 3 36.8758 3 38.4379 4.53769C40 6.07538 40 8.55025 40 13.5V32H32C29.0545 32 27 34.1005 27 37V45H18.6667C13.6384 45 11.1242 45 9.5621 43.4623C8 41.9246 8 39.4497 8 34.5V13.5Z" fill="black"/>
<path opacity="0.6" d="M40 32H32.2C28.5 32 27 34 27 37.2V45L40 32Z" fill="black"/>
</svg>

<svg xmlns="http://www.w3.org/2000/svg" width="48" height="48" fill="none" viewBox="0 0 48 48">
  <path fill="#000" d="M8 13.5c0-4.95 0-7.425 1.562-8.962C11.124 3 13.638 3 18.667 3h10.666c5.029 0 7.543 0 9.105 1.538C40 6.075 40 8.55 40 13.5V32h-8c-2.945 0-5 2.1-5 5v8h-8.333c-5.029 0-7.543 0-9.105-1.538C8 41.925 8 39.45 8 34.5v-21z"/>
  <path fill="#000" d="M40 32h-7.8c-3.7 0-5.2 2-5.2 5.2V45l13-13z" opacity=".6"/>
</svg>
